X:1
T: Aberlour's Squeeze
C:William Marshall
R:Strathspey
Q:128
K:C
M:4/4
L:1/16
|:G2|c4 c3e d3B c4|Gc3 c3e d3e f3g|ec3 c3e edcB cA3|Ac3 G3E D3F F2G2|
c4 c3e d3B c4|Gc3 c3e d3e f3g|ec3 c3e edcB cA3|Ac3 G3E D3F F2ef|
g3c e3c g3c e4|g3a e3g a3d f3a|gc3 eg3 cg3 e3g|c3A GE3 D3E F2ef|
g3c e3c g3c e4|g3a e3g a3d f3a|(3e2f2g2 (3d2e2f2 (3e2d2c2 (3d2c2B2|(3A2B2c2 (3G2F2E2 D3E F2:|
